!!!COM: Bach, Johann Sebastian
!!!OPR: Joh. Seb. Bachs vierstimmige Choralges‰nge
!!!XEN: Four-part Chorales
!!!OTL: 170. Was betr¸bst du dich, mein Herze
!!!SCT: BWV 423
!!!SCA: Thematisch-systematisches Verzeichnis der musikalischen Werke Johann Sebastian Bach: Bach-Werke-Verzeichnis (Schmieder)
!!!YOR: Bach Gesellschaft Edition xxxix
!!!ENC: Steven Rasmussen
!!!CDT: 1685/3//-1750/7/28/
!!!OCY: Deutschland
!!!YEC: Copyright (c) 1994, 2000 Center for Computer Assisted Research in the Humanities
!!!YEM: Rights to all derivative editions reserved
!!!YEN: United States of America
**kern	**kern	**kern	**kern	**silbe
*I:[BASSO]	*I:[TENORE]	*I:[ALTO]	*I:[SOPRANO]	*I:[SOPRANO]
*clefF4	*clefGv2	*clefG2	*clefG2	*
*k[b-]	*k[b-]	*k[b-]	*k[b-]	*
*d:	*d:	*d:	*d:	*
*M4/4	*M4/4	*M4/4	*M4/4	*
=1-	=1-	=1-	=1-	=1-
4.G	8B-L	8gL	4dd	Was
.	16cL	16aL	.	.
.	16dJJ	16b-JJ	.	.
.	8e-L	4a	4cc	be-
8F#	8dJ	.	.	.
4G	4d	8aL	4b-	-tr√ºbst
.	.	8gJ	.	.
4D	8.dL	8gL	4a	du
.	.	8f#J	.	.
.	16cJk	.	.	.
=2	=2	=2	=2	=2
4GG	8B-L	8dL	4b-	dich,
.	8dJ	16gL	.	.
.	.	16fJJ	.	.
4C	8cL	4e-	8aL	mein
.	8B-J	.	8gJ	.
4D	4A	4d	4f#	Her-
4DD;	4F#;	4A;	4d;	-ze,
=3	=3	=3	=3	=3
8GGL	4G	8B-L	4dd	wa-
8AAJ	.	8cJ	.	.
8BB-L	8gL	4d	4dd	-rum
8GGJ	8fJ	.	.	.
8CL	16e-LL	4G	4ee-	gr√§mst
.	16dJ	.	.	.
8DJ	8cJ	.	.	.
4E-	8cL	4g	4cc	du
.	8B-J	.	.	.
=4	=4	=4	=4	=4
4FF#	8AL	4.a	4dd	dich
.	8dJ	.	.	.
4GG	4d	.	8ccL	in
.	.	8g	8b-J	.
2D;	2d;	2f#;	2a;	mir?
=5	=5	=5	=5	=5
4D	4A	4f#	4dd	Sa-
8EL	8GL	8gL	4cc	-ge,
8F#J	8dJ	8aJ	.	.
4G	4d	8aL	4b-	was
.	.	8gJ	.	.
4D	4d	8gL	4a	f√ºr
.	.	8f#J	.	.
=6	=6	=6	=6	=6
4G	4d	8gL	4b-	Not
.	.	8fJ	.	.
4C#	8eL	4e	8aL	dich
.	8AJ	.	8gJ	.
4D	4A	4d	4f#	schmer-
4DD;	4F#;	4A;	4d;	-ze,
=7	=7	=7	=7	=7
4BB-	8FL	8B-L	4dd	wa-
.	8B-J	8dJ	.	.
8B-L	8dL	4f	4dd	-rum
8AJ	8cJ	.	.	.
4G	4B-	4.g	4ee-	ist
4A	4c	.	4cc	kein
.	.	8f	.	.
=8	=8	=8	=8	=8
4B-	8cL	4f	4dd	Mut
.	8B-J	.	.	.
4F	8B-L	8.fL	4cc	in
.	8AJ	.	.	.
.	.	16e-Jk	.	.
2BB-;	2F;	2d;	2b-;	dir?
=9	=9	=9	=9	=9
8B-L	8dL	4f	4dd	Was
8AJ	8cJ	.	.	.
4G	4B-	4g	4ee-	f√ºr
4D	8B-L	4f	4ff	Un-
.	8AJ	.	.	.
4G	4B-	8gL	4dd	-gl√ºck
.	.	8fJ	.	.
=10	=10	=10	=10	=10
4C	8B-L	8e-L	4ee-	hat
.	8AJ	8cJ	.	.
8DL	4B-	4f	4dd	dich
8E-J	.	.	.	.
4F	8B-L	4f	8ddL	trof-
.	8AJ	.	8ccJ	.
4FF;	4A;	4f;	4cc;	-fen
=11	=11	=11	=11	=11
8FL	4A	4f	4cc	und
8E-J	.	.	.	.
4D	4B-	4f	4dd	wo
4C	8B-L	8gL	4ee-	bleibt
.	8AJ	8f#J	.	.
8GL	4B-	4g	4dd	dein
8FJ	.	.	.	.
=12	=12	=12	=12	=12
4E-	4c	8gL	4.cc	freu-
.	.	8f#xJ	.	.
4En	4c	4gx	.	.
.	.	.	8b-	-dig
4F	4c	4fnx	4a	Hof-
!	!	!	! G4     2    *   q     u        F           fen?	!
!	!	!	! This is probably a misprint in BG for "F4", considering	!
!	!	!	! the F-major triad formed by the other three voices,	!
!	!	!	! which already includes the third of the chord.	!
4FF;	4A;	4c;	4f;	-fen?
=13	=13	=13	=13	=13
8F#L	4A	8aL	4dd	Wo
8EJ	.	8gJ	.	.
8F#L	4d	4a	4a	ist
8DJ	.	.	.	.
4G	4d	8aL	4b-	dei-
.	.	8gJ	.	.
4D	4d	8gL	4a	-ne
.	.	8f#J	.	.
=14	=14	=14	=14	=14
8GL	4d	4g	4b-	Zu-
8FJ	.	.	.	.
4E-	4e-	4g	4cc	-ver-
2D;	2A;	2f#;	2dd;	-sicht,
=15	=15	=15	=15	=15
4G	4B-	4g	4dd	die
4BB-	4d	4g	4dd	zu
4C	8e-L	8gL	4cc	Gott
.	8dJ	8f#J	.	.
4C#	4en	4g	4b-	sonst
=16	=16	=16	=16	=16
4D	8AL	8gL	4.a	war
.	8dJ	16f#L	.	.
.	.	16eJJ	.	.
4DD	8.dL	4f#	.	.
.	.	.	8g	ge-
.	16cJk	.	.	.
2GG;	2B-;	2d;	2g;	-richt't?
==|!	==|!	==|!	==|!	==|!
*-	*-	*-	*-	*-
!!!RWG: Key is interpreted using the Humdrum key tool.
!!!END: 1994/08/03
!!!EMD: Converted from MuseData to Humdrum Dec 19, 2000, by Andreas Kornstaedt using muse2kern.
!!!EED: Craig Stuart Sapp
!!!EEV: 2024/03/31
!!!ONB: Some non-unicode characters
!!!filter-keyboard: satb2gs
